X: 1
T: Mr. Charles Graham's Welcome Home
C: William Gow
R: jig
Z: 1997 by John Chambers <jc:trillian.mit.edu>
M: 6/8
L: 1/8
K: ADor
G "A"\
|  "Am"EAA A2G | BAA A2B | "G"d2e dBg | BGG GAG \
|  "Am"EAA A2G | BAA A2B | "G"d2e dBg | "Am"BAA A2 :|
e "B1"\
| "Am"~a3 a2e | ~a3 a2e | "G"gbg ege | dBG G2e \
| "Am"~a3 a2e | ~a3 a2e | "G"gbg ege | dBA "Am"A2 |]
e "B2"\
| "Am"~a3 a2e | ~a3 a2e | "G"gbg ege | dBG G2A/G/ \
| "Am"EAA A2G | BAA A2B | "G"d2e dBg | "Am"BAA A2 |]
